outputs/icons/action/calendar_range_round.svg

<svg xmlns="http://www.w3.org/2000/svg" width="1200" height="1200" fill="none"><g fill="#000" clip-path="url(#a)"><path d="M480.706 690.435v-74.08c0-18.625-21.473-27.73-33.8-14.485L335.964 717.34c-7.954 8.275-7.954 21.105 0 29.385l110.942 115.47c12.327 12.83 33.8 3.725 33.8-14.9v-74.08H719.29v74.08c0 18.625 21.475 27.73 33.8 14.49L864.035 746.31c7.95-8.275 7.95-21.105 0-29.385L753.09 601.455c-12.325-12.83-33.8-3.725-33.8 14.485v74.495z"/><path fill-rule="evenodd" d="M900 200h50c55 0 100 45 100 100v700c0 55-45 100-100 100H250c-55.5 0-100-45-100-100l.5-700c0-55 44-100 99.5-100h50v-50c0-27.5 22.5-50 50-50s50 22.5 50 50v50h400v-50c0-27.5 22.5-50 50-50s50 22.5 50 50zm-600 800h600c27.5 0 50-22.5 50-50V450H250v500c0 27.5 22.5 50 50 50"/></g><defs><clipPath id="a"><path fill="#fff" d="M0 0h1200v1200H0z"/></clipPath></defs></svg>

<svg width="1200" height="1200" viewBox="0 0 1200 1200" fill="none" xmlns="http://www.w3.org/2000/svg"><g clip-path="url(#clip0_223_1877)"><path fill-rule="evenodd" d="M900 200H950C1005 200 1050 245 1050 300V1000C1050 1055 1005 1100 950 1100H250C194.5 1100 150 1055 150 1000L150.5 300C150.5 245 194.5 200 250 200H300V150C300 122.5 322.5 100 350 100C377.5 100 400 122.5 400 150V200H800V150C800 122.5 822.5 100 850 100C877.5 100 900 122.5 900 150V200ZM300 1000H900C927.5 1000 950 977.5 950 950V450H250V950C250 977.5 272.5 1000 300 1000ZM480.706 690.435V616.355C480.706 597.73 459.233 588.625 446.906 601.87L335.964 717.34C328.01 725.615 328.01 738.445 335.964 746.725L446.906 862.195C459.233 875.025 480.706 865.92 480.706 847.295V773.215L719.29 773.215V847.295C719.29 865.92 740.765 875.025 753.09 861.785L864.035 746.31C871.985 738.035 871.985 725.205 864.035 716.925L753.09 601.455C740.765 588.625 719.29 597.73 719.29 615.94V690.435H480.706Z" fill="#1D1E23"/></g><defs><clipPath id="clip0_223_1877"><path width="24" fill="white" d="M0 0H1200V1200H0V0z"/></clipPath></defs></svg>
